X:254
T:Domhnall na Greine
T:Daniel of the Sun
T:Leg of the Duck, The
R:jig
H:See also #539
Z:id:hn-jig-254
M:6/8
K:D
fdd edd | fef dBA | Bee ede | fee ~e3 |
fdd edd | fef dBA | Bdd d2e | fdd d2e :|
|: fga efg | fef dBA | Bee ede | fee ede |
fga efg | fef dBA | Bdd d2e | fdd d2e :|
P:variations
|: fdd ede | fef dBA | Bee efe | Bee ede |
fdd ede | fef dBA | Bdd dBA | Bdc d2e :|
|: fga efg | ~f3 dBA | Bee efe | Bee ede |
fga efg | fef dBA | Bdd dBA | Bdc d2e :|

